logos/seneca.svg

<?xml version="1.0" encoding="UTF-8" standalone="no"?>
<svg width="256px" height="200px" viewBox="0 0 256 200" version="1.1" xmlns="http://www.w3.org/2000/svg" xmlns:xlink="http://www.w3.org/1999/xlink" preserveAspectRatio="xMidYMid">
    <g>
        <path d="M75.3598531,199.749533 L80.7056663,49.2629958 L93.9052753,49.2629958 L98.7127159,184.620124 C90.1025444,189.505287 82.2582269,194.598975 75.3579574,199.747638 L75.3598531,199.749533 Z M116.909333,175.155001 L122.602056,49.2629958 L136.686946,49.2629958 L141.900062,164.563846 C137.976008,165.996979 133.995083,167.570392 129.99141,169.249963 C125.523296,171.126685 121.167027,173.079233 116.911229,175.153106 L116.909333,175.155001 Z M161.696632,157.99532 L167.178934,49.2629958 L179.495157,49.2629958 L184.70069,152.520601 C177.383371,153.851367 169.671751,155.67501 161.696632,157.99532 L161.696632,157.99532 Z M33.5348519,0.0262140077 C33.7155428,0.0101171174 33.8984909,0.00189567845 34.0833506,0.00189567845 L221.594384,0.00189567845 C221.844879,0.00189567845 222.091874,0.0170021088 222.334509,0.0463525614 C222.539315,0.0182414399 222.725909,0.00379135689 222.892924,0.00379135689 L222.892924,0 C228.016943,0 251.52146,13.5730577 254.080626,18.0051539 C256.639791,22.4410414 256.639791,49.5833654 254.080626,54.0173573 C251.52146,58.4532449 228.015047,72.0263025 222.896715,72.0263025 C217.774592,72.0263025 194.268179,58.4532449 191.709013,54.0173573 C189.761357,50.6414189 189.295967,34.1161258 190.312844,24.4561476 L65.687301,24.4561476 C66.7039891,34.117286 66.238551,50.6430217 64.2909866,54.0173573 C61.7318207,58.4532449 38.225408,72.0263025 33.1070762,72.0263025 C27.9849531,72.0263025 4.47854033,58.4532449 1.91937443,54.0173573 C-0.639791475,49.5814697 -0.639791475,22.4429371 1.91937443,18.0070496 C4.47854033,13.5749533 27.9849531,0.00379135689 33.1070762,0.00379135689 L33.1070762,0 C33.2378779,0 33.3806887,0.00886436787 33.5348519,0.0262140077 Z" fill="#000000"></path>
    </g>
</svg>

<svg width="256" height="200" xmlns="http://www.w3.org/2000/svg" preserveAspectRatio="xMidYMid">
	<path d="m75.36 199.75 5.346-150.487h13.2l4.807 135.357c-8.61 4.885-16.455 9.979-23.355 15.128l.002.002Zm41.55-24.595 5.692-125.892h14.085l5.213 115.3a272.743 272.743 0 0 0-11.909 4.687 257.109 257.109 0 0 0-13.08 5.903l-.002.002Zm44.787-17.16 5.482-108.732h12.316l5.206 103.258c-7.318 1.33-15.03 3.154-23.004 5.474ZM33.535.026a6.18 6.18 0 0 1 .548-.024h187.511c.25 0 .498.015.74.044.205-.028.392-.042.559-.042V0c5.124 0 28.628 13.573 31.188 18.005 2.559 4.436 2.559 31.578 0 36.012-2.56 4.436-26.066 18.01-31.184 18.01-5.122 0-28.629-13.574-31.188-18.01-1.948-3.376-2.413-19.9-1.396-29.56H65.687c1.017 9.66.552 26.186-1.396 29.56-2.56 4.436-26.066 18.01-31.184 18.01-5.122 0-28.628-13.574-31.188-18.01-2.559-4.436-2.559-31.574 0-36.01C4.48 13.575 27.985.004 33.107.004V0c.13 0 .274.009.428.026Z"/>
</svg>
